icon-svg/wall-lantern.svg

<?xml version="1.0" encoding="UTF-8"?>
<svg width="32px" height="32px" viewBox="0 0 32 32" fill="#44739e" version="1.1" xmlns="http://www.w3.org/2000/svg" xmlns:xlink="http://www.w3.org/1999/xlink">
            <path d="M21.77525,24.55 C20.45825,24.122 18.54225,24.122 17.22425,24.549 L16.13325,16.79 C18.28025,17.063 20.71925,17.063 22.86625,16.791 L21.77525,24.55 Z M25.58225,12.756 C24.01825,12.284 21.98425,12.043 19.92125,12.012 C19.43925,8.619 16.52325,6 13.00025,6 C11.45825,6 10.03525,6.508 8.87725,7.356 C8.79825,6.702 8.68525,6.089 8.53325,5.561 C8.27525,4.67 7.95625,4.165 7.62625,4.034 C7.57125,4.011 7.51225,4 7.45425,4 L5.54725,4 C5.48925,4 5.43425,4.011 5.37625,4.034 C5.03225,4.168 4.70225,4.715 4.44025,5.66 C3.85325,7.795 3.85325,11.212 4.44025,13.343 C4.70225,14.288 5.03225,14.832 5.37625,14.966 C5.43425,14.989 5.48925,15 5.54725,15 L7.45425,15 C7.51225,15 7.57125,14.989 7.62625,14.966 C7.95625,14.835 8.27525,14.33 8.53325,13.436 C8.82025,12.44 8.96825,11.148 8.99125,9.834 C9.93125,8.646 11.37025,7.866 13.00025,7.866 C15.50225,7.866 17.58525,9.669 18.03625,12.042 C16.33825,12.129 14.71225,12.363 13.41125,12.756 C10.11825,13.75 10.22425,15.332 13.56825,16.291 C13.72125,16.335 13.89825,16.366 14.05925,16.406 L15.50125,26.652 C15.62225,27.101 16.33525,27.647 17.97925,27.889 C18.48525,27.963 18.99425,28 19.50225,28 C20.01025,28 20.51825,27.963 21.02425,27.889 C22.66625,27.647 23.34325,27.098 23.49925,26.654 L24.94025,16.408 C25.10325,16.367 25.28325,16.335 25.43825,16.291 C28.77825,15.332 28.87925,13.75 25.58225,12.756 Z"></path>
</svg>

<svg xmlns="http://www.w3.org/2000/svg" fill="#44739e" viewBox="0 0 24 24"><path d="M21.7753 24.55c-1.317-.428-3.233-.428-4.551-.001l-1.091-7.759c2.147.273 4.586.273 6.733.001zm3.807-11.794c-1.564-.472-3.598-.713-5.661-.744C19.4393 8.619 16.5233 6 13.0003 6c-1.542 0-2.965.508-4.123 1.356-.079-.654-.192-1.267-.344-1.795-.258-.891-.577-1.396-.907-1.527A.45.45 0 0 0 7.4543 4h-1.907c-.058 0-.113.011-.171.034-.344.134-.674.681-.936 1.626-.587 2.135-.587 5.552 0 7.683.262.945.592 1.489.936 1.623.058.023.113.034.171.034h1.907a.45.45 0 0 0 .172-.034c.33-.131.649-.636.907-1.53.287-.996.435-2.288.458-3.602.94-1.188 2.379-1.968 4.009-1.968 2.502 0 4.585 1.803 5.036 4.176-1.698.087-3.324.321-4.625.714-3.293.994-3.187 2.576.157 3.535.153.044.33.075.491.115l1.442 10.246c.121.449.834.995 2.478 1.237.506.074 1.015.111 1.523.111s1.016-.037 1.522-.111c1.642-.242 2.319-.791 2.475-1.235l1.441-10.246c.163-.041.343-.073.498-.117 3.34-.959 3.441-2.541.144-3.535"/></svg>
